X: 1
T: Salmon Tails Up the Water
O: Kerr's 2nd
R: strathspey
Z: 2014 John Chambers <jc:trillian.mit.edu>
S: printed copy of unknown origin
M: C
L: 1/8
K: Amix
e |:\
"A"A<e e>f e>A c2 | "Am"A<e e>=c "G"B<G d<B |\
"A"A<e e>f e>A c2 | "Em"B<E E>F G>A B<G :|
|:\
"A"A<a a2 e>a c>a | "G"G<g g2 d>g d<G |\
"A"A<a a2 e>a c>a | "G"g<b "C"e<g "G"d<g "Em"B<G :|
